X:1
T:Bob The Pedigree Sheepdog
M:4/4
L:1/4
K:D
 F F/2F/2 D3/2 D/2| F F D D/2E/2| F F/2F/2 F/2F/2 F| F E2 E/2E/2| E E C D/2E/2|\
 E/2 E3/2 C A| A A/2A/2 A G| F D2 D/2E/2| F F D D/2E/2| F F D2| D D/2D/2 E E/2F/2|\
 A G2 A/2A/2| A/2 A3/2 A3/2 A/2| A/2 A3/2 A2| A, A,/2A,/2 B, D| D D3-|\
 D3 F/2F/2| F F D3/2 D/2| F F D D/2D/2| D D E/2 F3/2| G3 A/2A/2| A A/2A/2 c3/2 B/2|\
 A A c3/2 B/2| A G F E| D4|

